view/frontend/web/svg/flags/mp.svg

<svg width="24" height="24" viewbox="0 0 20 15" viewBox="0 0 20 15" fill="none" xmlns="http://www.w3.org/2000/svg">
<g clip-path="url(#clip0_270_60889)">
<rect width="20" height="15" fill="white"/>
<path fill-rule="evenodd" clip-rule="evenodd" d="M0 0H21.25V15H0V0Z" fill="#2993EC"/>
<path fill-rule="evenodd" clip-rule="evenodd" d="M3.88298 7.23958C3.88298 10.5475 6.62166 13.2292 10 13.2292C13.3783 13.2292 16.117 10.5475 16.117 7.23958C16.117 3.93163 13.3783 1.25 10 1.25C6.62166 1.25 3.88298 3.93163 3.88298 7.23958ZM14.7872 7.23958C14.7872 9.82842 12.6439 11.9271 10 11.9271C7.35609 11.9271 5.21277 9.82842 5.21277 7.23958C5.21277 4.65075 7.35609 2.55208 10 2.55208C12.6439 2.55208 14.7872 4.65075 14.7872 7.23958Z" fill="#F1F9FF"/>
<path fill-rule="evenodd" clip-rule="evenodd" d="M4.41489 7.23958C4.41489 10.2599 6.91542 12.7083 9.99999 12.7083C13.0846 12.7083 15.5851 10.2599 15.5851 7.23958C15.5851 4.21927 13.0846 1.77083 9.99999 1.77083C6.91542 1.77083 4.41489 4.21927 4.41489 7.23958ZM15.3191 7.23958C15.3191 10.1161 12.9377 12.4479 9.99999 12.4479C7.06231 12.4479 4.68084 10.1161 4.68084 7.23958C4.68084 4.3631 7.06231 2.03124 9.99999 2.03124C12.9377 2.03124 15.3191 4.3631 15.3191 7.23958Z" fill="#E31D1C"/>
<path fill-rule="evenodd" clip-rule="evenodd" d="M10 1.3802C9.93258 1.51937 9.89886 1.71714 9.89886 1.9735C9.89886 2.22985 9.7996 2.48647 9.60106 2.74335C9.56419 2.46053 9.54575 2.20392 9.54575 1.9735C9.54575 1.74308 9.69717 1.54531 10 1.3802ZM11.3977 1.59184C11.3007 1.71228 11.2233 1.89739 11.1657 2.14718C11.108 2.39697 10.9535 2.62468 10.7023 2.83031C10.73 2.54645 10.7698 2.29226 10.8216 2.06775C10.8734 1.84323 11.0654 1.6846 11.3977 1.59184ZM12.3581 2.60492C12.4745 2.3765 12.5943 2.21559 12.7176 2.1222C12.3728 2.13183 12.1481 2.2393 12.0435 2.44461C11.9389 2.64991 11.8388 2.88693 11.7433 3.15566C12.0368 3.01691 12.2417 2.83333 12.3581 2.60492ZM13.8695 2.92749C13.7284 2.99077 13.5754 3.12059 13.4107 3.31697C13.2459 3.51336 13.0049 3.64613 12.6877 3.71529C12.8412 3.47494 12.992 3.26651 13.1401 3.09C13.2883 2.91348 13.5314 2.85932 13.8695 2.92749ZM14.2675 4.24755C14.4722 4.09327 14.6504 4.00118 14.8022 3.97127C14.488 3.82878 14.239 3.82687 14.055 3.96554C13.8709 4.10422 13.6771 4.27338 13.4734 4.47303C13.798 4.47699 14.0627 4.40183 14.2675 4.24755ZM15.4666 5.21015C15.3122 5.20246 15.1169 5.24871 14.881 5.34887C14.645 5.44904 14.37 5.45793 14.056 5.37555C14.3019 5.2311 14.5309 5.11386 14.743 5.02383C14.9551 4.9338 15.1963 4.9959 15.4666 5.21015ZM15.2203 6.55681C15.4727 6.51229 15.6734 6.51115 15.8221 6.55338C15.6069 6.28382 15.3859 6.16904 15.159 6.20906C14.932 6.24907 14.6825 6.31179 14.4104 6.39721C14.6979 6.54812 14.9678 6.60132 15.2203 6.55681ZM3.80251 6.10603C3.92785 6.1966 4.11676 6.26414 4.36922 6.30865C4.62169 6.35317 4.85717 6.49549 5.07567 6.73562C4.79075 6.72282 4.53483 6.69642 4.30791 6.6564C4.08099 6.61639 3.91252 6.43293 3.80251 6.10603ZM4.76324 5.11692C4.52726 5.01676 4.35839 4.90845 4.25663 4.79201C4.29028 5.13528 4.41316 5.35193 4.62527 5.44197C4.83737 5.532 5.08079 5.6153 5.35553 5.69186C5.19665 5.40873 4.99922 5.21709 4.76324 5.11692ZM5.01697 3.60849C5.08754 3.74609 5.22519 3.89203 5.42993 4.04631C5.63466 4.20059 5.77987 4.43431 5.86554 4.74746C5.61748 4.60671 5.40144 4.46699 5.21742 4.32832C5.0334 4.18965 4.96658 3.94971 5.01697 3.60849ZM6.32813 3.155C6.16334 2.95862 6.06205 2.78546 6.02424 2.63551C5.89838 2.95664 5.90951 3.20547 6.05762 3.38198C6.20574 3.55849 6.38481 3.74322 6.59485 3.93617C6.58182 3.61177 6.49291 3.35139 6.32813 3.155ZM7.2329 1.91598C7.23601 2.07059 7.29575 2.2621 7.41214 2.49052C7.52852 2.71894 7.55658 2.99265 7.4963 3.31166C7.33505 3.07641 7.20212 2.85614 7.09751 2.65083C6.9929 2.44552 7.03803 2.20057 7.2329 1.91598ZM8.62562 2.0905C8.56795 1.84071 8.55631 1.64043 8.5907 1.48966C8.33277 1.71866 8.22972 1.94541 8.28156 2.16993C8.33339 2.39444 8.40908 2.64034 8.50863 2.90761C8.64429 2.61265 8.68329 2.34028 8.62562 2.0905Z" fill="#FDDA33"/>
<path fill-rule="evenodd" clip-rule="evenodd" d="M9.11633 3.59375C8.88711 3.59375 8.71659 3.80563 8.76559 4.02955L9.00738 5.13438C9.02862 5.23145 9.08798 5.31209 9.16765 5.36199C9.09417 5.41912 9.04318 5.50442 9.03144 5.60302L8.16421 12.8815C8.1483 13.015 8.20804 13.1459 8.32479 13.2126C8.65119 13.3992 9.35884 13.75 10.0665 13.75C10.7741 13.75 11.4818 13.3992 11.8082 13.2126C11.9249 13.1459 11.9847 13.015 11.9688 12.8815L11.1016 5.60302C11.0898 5.50442 11.0388 5.41912 10.9653 5.36199C11.045 5.31209 11.1044 5.23145 11.1256 5.13438L11.3674 4.02955C11.4164 3.80563 11.2459 3.59375 11.0167 3.59375H9.11633Z" fill="#A7A7A7"/>
<path d="M4.07455 7.50801C4.10679 7.40486 4.21831 7.34683 4.32365 7.3784C4.429 7.40996 4.48826 7.51916 4.45603 7.62231C4.40026 7.80077 4.40026 8.06437 4.46178 8.40923C4.48538 8.54152 4.51344 8.64365 4.54795 8.73388C4.56169 8.76982 4.57591 8.80272 4.5949 8.84355C4.58645 8.82537 4.63281 8.92384 4.64408 8.94936C4.7037 9.08429 4.73006 9.20254 4.73006 9.37579C4.73006 9.48366 4.64076 9.5711 4.5306 9.5711C4.42043 9.5711 4.33113 9.48366 4.33113 9.37579C4.33113 9.2574 4.31647 9.19167 4.27794 9.10446C4.26886 9.08391 4.22556 8.99193 4.23187 9.00549C4.20936 8.9571 4.19173 8.91631 4.17435 8.87087C4.13105 8.75766 4.09658 8.63218 4.0688 8.47645C3.99742 8.07636 3.99742 7.75483 4.07455 7.50801Z" fill="#73BE4A"/>
<path fill-rule="evenodd" clip-rule="evenodd" d="M10.133 10.112L7.56142 11.8641L8.46863 8.92795L5.97211 7.07465L9.10436 7.01215L10.133 4.11458L11.1616 7.01215L14.2939 7.07465L11.7973 8.92795L12.7045 11.8641L10.133 10.112Z" fill="#F7FCFF"/>
<path d="M15.9747 7.76842C15.9424 7.66527 15.8309 7.60724 15.7256 7.6388C15.6202 7.67037 15.5609 7.77957 15.5932 7.88272C15.649 8.06118 15.649 8.32477 15.5874 8.66964C15.5638 8.80192 15.5358 8.90406 15.5013 8.99429C15.4875 9.03023 15.4733 9.06313 15.4543 9.10395C15.4628 9.08577 15.4164 9.18424 15.4051 9.20977C15.3455 9.3447 15.3191 9.46295 15.3191 9.6362C15.3191 9.74407 15.4084 9.83151 15.5186 9.83151C15.6288 9.83151 15.7181 9.74407 15.7181 9.6362C15.7181 9.51781 15.7327 9.45208 15.7713 9.36487C15.7803 9.34432 15.8237 9.25233 15.8173 9.26589C15.8399 9.21751 15.8575 9.17672 15.8749 9.13128C15.9182 9.01807 15.9526 8.89258 15.9804 8.73686C16.0518 8.33677 16.0518 8.01524 15.9747 7.76842Z" fill="#73BE4A"/>
<path d="M10.038 1.96725C10.038 1.96725 10.7658 2.29146 10.4515 2.80194" stroke="#73BE4A" stroke-width="0.625" stroke-linecap="round" stroke-linejoin="round"/>
<path d="M10.5699 1.96725C10.5699 1.96725 11.2977 2.29146 10.9834 2.80194" stroke="#73BE4A" stroke-width="0.625" stroke-linecap="round" stroke-linejoin="round"/>
<path d="M5.78739 3.97296C5.84015 3.88164 5.95097 3.85414 6.03492 3.91154C6.11886 3.96894 6.14413 4.08951 6.09137 4.18084C5.99014 4.35606 5.93744 4.59646 5.93744 4.90471C5.93744 5.01258 5.85707 5.10002 5.75792 5.10002C5.65877 5.10002 5.5784 5.01258 5.5784 4.90471C5.5784 4.52799 5.64668 4.21652 5.78739 3.97296Z" fill="#73BE4A"/>
<path d="M5.50531 5.75783C5.50531 5.8657 5.42494 5.95314 5.32579 5.95314C5.22665 5.95314 5.14627 5.8657 5.14627 5.75783V5.20148C5.14627 4.80781 5.20802 4.49779 5.33822 4.2714C5.39081 4.17995 5.50158 4.15221 5.58563 4.20942C5.66968 4.26664 5.69519 4.38715 5.64259 4.4786C5.55331 4.63384 5.50531 4.87481 5.50531 5.20148V5.75783Z" fill="#73BE4A"/>
<path d="M14.6776 5.49742C14.6776 5.60529 14.758 5.69274 14.8571 5.69274C14.9563 5.69274 15.0367 5.60529 15.0367 5.49742V4.94107C15.0367 4.5474 14.9749 4.23738 14.8447 4.01099C14.7921 3.91955 14.6813 3.8918 14.5973 3.94902C14.5132 4.00623 14.4877 4.12675 14.5403 4.21819C14.6296 4.37344 14.6776 4.6144 14.6776 4.94107V5.49742Z" fill="#73BE4A"/>
<path d="M15.2095 6.40888C15.2095 6.51675 15.2899 6.60419 15.3891 6.60419C15.4882 6.60419 15.5686 6.51675 15.5686 6.40888V5.85252C15.5686 5.45886 15.5068 5.14884 15.3766 4.92244C15.324 4.831 15.2133 4.80325 15.1292 4.86047C15.0452 4.91769 15.0197 5.0382 15.0722 5.12964C15.1615 5.28489 15.2095 5.52586 15.2095 5.85252V6.40888Z" fill="#73BE4A"/>
</g>
<defs>
<clipPath id="clip0_270_60889">
<rect width="20" height="15" fill="white"/>
</clipPath>
</defs>
</svg>

<svg width="24" height="24" viewbox="0 0 20 15" fill="none" xmlns="http://www.w3.org/2000/svg">
  <mask id="a" maskUnits="userSpaceOnUse" x="0" y="0" width="20" height="15">
    <path fill="#fff" d="M0 0h20v15H0z"/>
  </mask>
  <g mask="url(#a)">
    <path fill-rule="evenodd" clip-rule="evenodd" d="M0 0h21.25v15H0V0z" fill="#2993EC"/>
    <path fill-rule="evenodd" clip-rule="evenodd" d="M3.883 7.24c0 3.307 2.739 5.99 6.117 5.99s6.117-2.683 6.117-5.99c0-3.308-2.739-5.99-6.117-5.99S3.883 3.932 3.883 7.24zm10.904 0c0 2.588-2.143 4.687-4.787 4.687S5.213 9.828 5.213 7.24c0-2.59 2.143-4.688 4.787-4.688s4.787 2.099 4.787 4.688z" fill="#F1F9FF"/>
    <path fill-rule="evenodd" clip-rule="evenodd" d="M4.415 7.24c0 3.02 2.5 5.468 5.585 5.468s5.585-2.448 5.585-5.468-2.5-5.47-5.585-5.47-5.585 2.45-5.585 5.47zm10.904 0c0 2.876-2.381 5.208-5.319 5.208S4.68 10.116 4.68 7.24c0-2.877 2.383-5.21 5.32-5.21s5.32 2.332 5.32 5.209z" fill="#E31D1C"/>
    <path fill-rule="evenodd" clip-rule="evenodd" d="M10 1.38c-.067.14-.101.337-.101.594 0 .256-.1.512-.298.77a6.003 6.003 0 01-.055-.77c0-.23.151-.429.454-.594zm1.398.212c-.097.12-.175.305-.232.555-.058.25-.213.478-.464.683a6.01 6.01 0 01.12-.762c.051-.225.243-.383.576-.476zm.96 1.013c.117-.228.236-.39.36-.483-.345.01-.57.117-.675.323a5.997 5.997 0 00-.3.71c.294-.138.499-.322.615-.55zm1.511.322c-.14.064-.294.194-.458.39-.165.196-.406.33-.723.398.153-.24.304-.448.452-.625.148-.177.391-.23.73-.163zm.399 1.32c.204-.154.382-.246.534-.276-.314-.142-.563-.144-.747-.005a5.998 5.998 0 00-.582.507c.325.004.59-.071.794-.225zm1.199.963c-.155-.008-.35.039-.586.139s-.511.109-.825.027a6 6 0 01.687-.352c.212-.09.453-.028.724.186zm-.247 1.347c.253-.045.453-.046.602-.004-.215-.27-.436-.384-.663-.344a6.07 6.07 0 00-.749.188c.288.151.558.204.81.16zM3.803 6.106c.125.09.314.158.566.203.253.044.488.186.707.427a6.001 6.001 0 01-.768-.08c-.227-.04-.395-.223-.505-.55zm.96-.99c-.236-.1-.405-.208-.506-.324.033.343.156.56.368.65.212.09.456.173.73.25-.158-.283-.356-.475-.592-.575zm.254-1.508c.07.138.208.284.413.438.205.155.35.388.436.701a6.001 6.001 0 01-.649-.419c-.184-.138-.25-.378-.2-.72zm1.311-.453c-.165-.196-.266-.37-.304-.52-.126.322-.114.57.034.747.148.176.327.361.537.554-.013-.324-.102-.585-.267-.781zm.905-1.239c.003.155.063.346.18.575.116.228.144.502.083.82a6.002 6.002 0 01-.398-.66c-.105-.205-.06-.45.135-.735zm1.393.175c-.058-.25-.07-.45-.035-.601-.258.229-.361.455-.31.68.052.224.128.47.228.738.135-.295.174-.568.117-.817z" fill="#FDDA33"/>
    <path fill-rule="evenodd" clip-rule="evenodd" d="M9.116 3.594c-.229 0-.4.212-.35.436l.241 1.104a.365.365 0 00.16.228.358.358 0 00-.136.241l-.867 7.279a.332.332 0 00.16.33c.327.187 1.035.538 1.742.538.708 0 1.416-.35 1.742-.537a.332.332 0 00.16-.331l-.866-7.279a.359.359 0 00-.137-.241c.08-.05.14-.13.16-.228l.242-1.104a.359.359 0 00-.35-.436h-1.9z" fill="#A7A7A7"/>
    <path d="M4.075 7.508a.2.2 0 01.249-.13.195.195 0 01.132.244c-.056.179-.056.442.006.787a1.754 1.754 0 00.133.435l.05.105a.978.978 0 01.085.427c0 .108-.09.195-.2.195a.197.197 0 01-.199-.195.588.588 0 00-.053-.272 8.385 8.385 0 00-.046-.099 2.007 2.007 0 01-.163-.529c-.072-.4-.072-.721.006-.968z" fill="#73BE4A"/>
    <path fill-rule="evenodd" clip-rule="evenodd" d="M10.133 10.112l-2.572 1.752.908-2.936-2.497-1.853 3.132-.063 1.029-2.897 1.029 2.897 3.132.063-2.497 1.853.907 2.936-2.571-1.752z" fill="#F7FCFF"/>
    <path d="M15.975 7.768a.2.2 0 00-.25-.13.195.195 0 00-.132.245c.056.178.056.442-.006.787a1.756 1.756 0 01-.133.434l-.049.106a.966.966 0 00-.086.426c0 .108.09.196.2.196.11 0 .2-.088.2-.196 0-.118.014-.184.052-.271l.046-.1a1.971 1.971 0 00.163-.528c.072-.4.072-.722-.005-.969z" fill="#73BE4A"/>
    <path d="M10.038 1.967s.728.324.413.835m.119-.835s.728.324.413.835" stroke="#73BE4A" stroke-width=".625" stroke-linecap="round" stroke-linejoin="round"/>
    <path d="M5.787 3.973a.171.171 0 01.248-.061c.084.057.11.178.056.269-.1.175-.154.415-.154.724 0 .108-.08.195-.18.195-.098 0-.179-.087-.179-.195 0-.377.069-.688.21-.932z" fill="#73BE4A"/>
    <path d="M5.505 5.758c0 .108-.08.195-.18.195-.098 0-.179-.087-.179-.195V5.2c0-.393.062-.703.192-.93a.171.171 0 01.248-.062c.084.058.11.178.057.27-.09.155-.138.396-.138.722v.557zm9.173-.261c0 .108.08.196.18.196.098 0 .179-.088.179-.196v-.556c0-.394-.062-.704-.192-.93a.171.171 0 00-.248-.062.206.206 0 00-.057.27c.09.154.138.395.138.722v.556z" fill="#73BE4A"/>
    <path d="M15.21 6.409c0 .108.08.195.18.195.098 0 .179-.087.179-.195v-.556c0-.394-.062-.704-.192-.93a.171.171 0 00-.248-.063.206.206 0 00-.057.27c.09.155.138.396.138.723v.556z" fill="#73BE4A"/>
  </g>
</svg>
